X: 1
T:Fly-Fishing Reel, The
M:4/4
L:1/8
C:Jackie Daly
D:Many's the Wild Night
Z:Naka Ishii
S:Naka J Ishii <nishii@LIBRARY.UMASS.EDU> irtrad-l 1996-11-15
K:A
   AGEC D2CD | EA,A,B, CEEC | DCDE D2CD | EAAc BecB |
   AGEC D2CD | EA,A,B, CEEC | DCDE D2CD | EAAG A3 B :|
|: c2ec Acec | =Gcec   dFF2 | DEFA dAFA | GBef edcB |
   c2ec Acec | =Gcec   dFF2 | DEFA dAFA | GBAG A3B :|
